!!!!SEGMENT: pl-wumfc--n18053--012_noskowski-zygmunt--livia-quintilla-akt-drugi-przygrywka.krn
!!!cenid: 18xx:4228
!!!COM: Noskowski, Zygmunt
!!!COM-rismID: pe106604
!!!CDT: 1846/05/02-1909/07/23
!!!CNT: Polish
!!!GTL: Livia Quintilla
!!!OTL: Akt drugi - Przygrywka
!!!OMV: 012
!!!PDT: 1898
!!!AGN:
!!!SMS-siglum: PL-Wumfc
!!!SMS-shelfmark: N18053
!!!SMS-shelfwork: 001-012 G
!!!SMS-variant:
!!!SMS-altvar:
!!!NIFC-rismSourceID: 1001161204
!!!NIFC-rismChildID: 1001161204
!!!NIFC-islandoraID: pl-wumfc:1491
!!!URL-pdf-islandora: https://repozytorium.nifc.pl/islandora/object/pl-wumfc:1491/datastream/PDF/view
!!!URL-scan: https://polish.musicsources.pl/pl/lokalizacje/galeria/druki-muzyczne/11843/44 @EN{Scan on Polish Music Sources Website} @PL{Skany w portalu Dziedzictwo Muzyki Polskiej w otwartym dostępie}
!!!ONB-nifc: Skany 0044
!!!OMD: Andante.
!!!AIN: 1 piano
!!!key: a
**kern	**kern	**dynam
*part1	*part1	*part1
*staff2	*staff1	*
*I"PIANO.	*I"PIANO.	*
*I'	*I'	*
*Ipiano	*Ipiano	*
*ICklav	*ICklav	*
*clefF4	*clefG2	*
*k[]	*k[]	*
*a:	*a:	*
*M6/8	*M6/8	*
=1	=1	=1
!	!LO:TX:b:t=Ob.	!
2.r	(2.cc\	p
=2	=2	=2
2.r	8a/L	<
.	8g/	.
.	8e/J	[
.	8qg/	.
.	8f/L	.
.	8d/	.
.	16e/L	.
.	16d/JJ)	.
=3	=3	=3
2.r	(4.c/	.
.	16f/LL	.
.	16d/J	.
.	8e/	.
.	8B/J	.
=4	=4	=4
2.r;	[4.c/)	.
.	4c/]	.
.	8r;	.
=5	=5	=5
*	*^	*
[2.C [2.FF/	(8a/L	4.A\	.
.	8g/	.	.
.	8f/J	.	.
.	8e/L	4.B-X\	.
.	8d/	.	.
.	8e/J	.	.
=6	=6	=6	=6
4.C_ 4.FF/_	16f/LL	4.A\	.
.	16g/JJ	.	.
.	[4f/	.	.
4C] 4FF/]	4f/])	4ryy	.
8r;	8r;	8r	.
*	*v	*v	*
!!LO:LB:g=original
=7	=7	=7
2.r	(2.ee\	p
=8	=8	=8
2.r	8cc/L	<
.	8bn/	.
.	8g#X/J	[
.	8qb/	.
.	8a/L	.
.	8f/	.
.	16gn/L	.
.	16f/JJ)	.
=9	=9	=9
2.r	(4.e/	.
.	16a/LL	.
.	16f/J	.
.	8g/	.
.	8d#X/J	.
=10	=10	=10
2.r;	[4.e/)	.
.	4e/]	.
.	8r;	.
*clefG2	*	*
=11	=11	=11
*^	*^	*
!	!	!LO:TX:a:t=Fl.	!	!
(4.a/	2.e 2.A\	(8ccc/L	4.ee 4.cc\	p
.	.	8bb/	.	.
.	.	8aa/J	.	.
4.b/)	.	8gg#X/L	4.dd\	.
.	.	8ff#X/	.	.
.	.	8gg#/J	.	.
=12	=12	=12	=12	=12
[4.a/	[4.e [4.A\	16aa/LL	[4.cc\	.
.	.	16bb/JJ	.	.
.	.	[4aa/)	.	.
8a/]	8e] 8A\]	8aa/L]	8cc\]	.
8r	8ryy	(8bb/	8r	.
8r	8ryy	8ccc/J	8r	.
!!LO:LB:g=original
=13	=13	=13	=13	=13
(8ff/L	2.a\	8ddd/L	[4.aa\	<
8ee/	.	8eee/	.	.
8dd/J	.	8fff/J	.	[
8cc/L	.	8eee/L	4aa\]	.
8ee/	.	8ccc/	.	.
8cc/J	.	8aa/J	8ee\	.
=14	=14	=14	=14	=14
[4.b/	[4.e\	16eee/LL	[4.gg#X\	>
.	.	16fff/JJ	.	.
.	.	[4eee/	.	.
4b;/])	4e\]	4eee;/])	4gg#\]	]
8r;	8ryy	8r;	8ryy	.
*clefF4	*	*	*	*
*v	*v	*	*	*
*	*v	*v	*
=15	=15	=15
16r	2.r	mf
(16e\LL	.	.
16d#X\	.	.
16f\J	.	.
8e\J)	.	.
8r	.	.
4e\	.	.
=16	=16	=16
16r	4r	p
(16e\LL	.	.
16d#X\	.	.
16f\J	.	.
8e\J)	8r	.
8r	4r	.
4e\	.	.
!	!LO:TX:a:i:t=cantabile e molto espressivo	!
.	8e/	.
=17	=17	=17
.	8qd/	.
(16E\LL	(4.b 4.g#X/	.
16e\	.	.
16d#X\	.	.
16f\J	.	.
8e\J)	.	.
8r	8cc/L	.
!LO:SIC:v:s=4e 4d\	!	!
4e 4d#\	8b/	.
.	8g#X/J)	.
!!LO:LB:g=original
=18	=18	=18
(16A\LL	(16eLL 16c/	.
16e\	16b/JJ	.
16d#X\	[4a/)	.
16f\J	.	.
8e\J	.	.
4e 4c\)	8a/L]	.
.	(8b/	.
8r	8cc/J)	.
=19	=19	=19
*^	*^	*
(16f/LL	4.A\	(16dd/LL	4.a\	.
16e/	.	16gg/JJ	.	.
16f/	.	4ff/)	.	.
16g/J	.	.	.	.
8f/J)	.	.	.	.
4r	4ryy	8aL 8f/	4ryy	.
.	.	(8a 8f/	.	.
8e\	8ryy	8bJ 8g#X/)	8ryy	.
=20	=20	=20	=20	=20
16r	4.A\	(16cc/LL	8a\	.
(16d#X/LL	.	16ff/JJ	.	.
16e/	.	[4ee/)	[4cc\	.
16f/J	.	.	.	.
[8e/J)	.	.	.	.
4e/]	(16A\LL	8ee/]	8cc\]	<
.	16G#X\	.	.	.
.	16A\	8r	8ryy	.
.	16B\J	.	.	.
8ryy	8A\J)	8ee 8cc\	8ryy	[
=21	=21	=21	=21	=21
(16A\LL	4.A/	(4.aa/	2.ee 2.cc\	mf
16e\	.	.	.	.
16d#X\	.	.	.	.
16f\J	.	.	.	.
8e\J)	.	.	.	.
8a\L	4ryy	4.gg/)	.	.
8A\	.	.	.	.
8A\J	8ryy	.	.	.
*	*	*v	*v	*
!!LO:LB:g=original
=22	=22	=22	=22
(16A\LL	4.A/	8ffL 8dd\	.
16c#X\	.	.	.
16dn\	.	(8ff 8dd\	.
16e\J	.	.	.
8f\J	.	8eeJ 8ccn\	.
4.a\)	4.ryy	16ddLL 16b\	>
.	.	16eeJ 16cc\	.
.	.	8ff 8dd\)	.
.	.	8ffJ 8dd\	]
=23	=23	=23	=23
*	*	*^	*
(16A\LL	4.A/	(4.gg/	2.dd 2.b\	p
16c#X\	.	.	.	.
16d\	.	.	.	.
16f\J	.	.	.	.
[8g#X\J)	.	.	.	.
8g#\L]	4ryy	4.ff/)	.	.
8A\	.	.	.	.
8A\J	8ryy	.	.	.
*	*	*v	*v	*
=24	=24	=24	=24
(16A\LL	4.A/	8eeL 8cc\	.
16d#X\	.	.	.
16e\	.	(8ee 8cc\	.
16f\J	.	.	.
[8e\J)	.	8ddJ 8b\	.
8e\]	4ryy	16ccLL 16a\	.
.	.	16ddJ 16b\	.
8r	.	8ee 8cc\)	.
8r	8ryy	8eeJ 8cc\	.
*v	*v	*	*
=25	=25	=25
(16E\LL	4.b 4.g#X 4.d/	<
16F\	.	.
16E\	.	.
16D#X\J	.	.
8E\J)	.	[
8r	(8.ddL 8.g# 8.f/	.
4E\	.	.
.	16ccK 16g# 16e/	.
.	8bJ 8g# 8d/)	.
!!LO:LB:g=original
=26	=26	=26
*^	*	*
16r	[4.AA\	(16ccLL 16a 16c/	.
(16D#X/LL	.	16ffJJ 16f/)	.
16E/	.	[4ee [4cc [4e/	.
16G#X/	.	.	.
16A/	.	.	.
16F/JJ	.	.	.
8E/)	8AA\]	16ee]LL 16cc] 16e/]	>
.	.	(16d#X/	.
8r	8ryy	16e/	.
.	.	16f/J)	.
8r	8ryy	8eeJ 8cc 8e/	]
*v	*v	*	*
=27	=27	=27
*	*^	*
(16E\LL	4.g#X 4.d/	4.ryy	.
16F\	.	.	.
16E\	.	.	.
16D#X\J	.	.	.
8E\J)	.	.	.
4.EE/	(8.cc/L	4g# 4d\	.
.	16b/K	.	.
.	8g#/J)	8d 8B\	.
=28	=28	=28	=28
*^	*	*	*
16r	[4.AA\	(16e/LL	[4.c\	.
(16D#X/LL	.	16b/JJ	.	.
16E/	.	[4a/)	.	.
16F/J	.	.	.	.
[8E/J	.	.	.	.
8E/])	8AA\]	8a/L]	8c\]	<
8r	8ryy	(8a/	8r	.
8Gn\	8ryy	8b 8f/J)	8ryy	[
=29	=29	=29	=29	=29
16r	[4.C\	(8cc/L	4.e\	mf
(16G/LL	.	.	.	.
16F#X/	.	8dd/	.	.
16A/J	.	.	.	.
[8G/J	.	8ee/J	.	.
4G/])	4C\]	16a/LL	4fn 4d\	.
.	.	16cc/J	.	.
.	.	8b/	.	.
8r	8ryy	8g/J)	8r	.
!!LO:PB:g=original
=30	=30	=30	=30	=30
16r	[4.C\	(8e/	4.c\	.
(16G/LL	.	.	.	.
16F#X/	.	4b/)	.	.
16A/J	.	.	.	.
[8G/J	.	.	.	.
4G/])	4C\]	(16a/LL	4fn 4d\	.
.	.	16cc/J	.	.
.	.	8b/	.	.
8r	8ryy	8g/J)	8r	.
*	*	*v	*v	*
=31	=31	=31	=31
16r	[4.C\	(8cc 8g 8e/	.
(16G/LL	.	.	.
16F#X/	.	4gg 4ee 4g^^\)	.
16A/J	.	.	.
8G/J	.	.	.
4c/)	4C\]	(8.ff#XL 8.dd 8.a\	.
.	.	16eeK 16g\	.
8r	8ryy	8ddJ 8a 8f#X\)	.
=32	=32	=32	=32
(16C\LL	4.C/	8aa 8ffn 8b\	.
16G\	.	.	.
16F#X\	.	[4gg [4dd [4b\	.
16G\	.	.	.
16B\	.	.	.
16d\JJ	.	.	.
8fn\)	4ryy	8gg]L 8dd] 8b\]	>
8r	.	(8ff 8b 8a\	.
8r	8ryy	8ddJ 8b 8f\)	]]
=33	=33	=33	=33
*	*	*^	*
16r	[4.C\	(8cc/L	4.e\	p
(16G/LL	.	.	.	.
16F#X/	.	8dd/	.	.
16A/J	.	.	.	.
[8G/J	.	8ee/J	.	.
4G/])	4C\]	16a/LL	4f 4d\	.
.	.	16cc/J	.	.
.	.	8b/	.	.
8r	8ryy	8g/J)	8r	.
*	*	*v	*v	*
!!LO:LB:g=original
=34	=34	=34	=34
16r	[4.C\	8e 8c/	.
(16G/LL	.	.	.
16F#X/	.	[4b-X [4e/	.
16A/J	.	.	.
[8G/J	.	.	.
4G/])	4C\]	16b-]LL 16e/]	.
.	.	(16dd/J	.
.	.	8cc/	.
8r	8ryy	8b-/J)	.
=35	=35	=35	=35
*	*	*^	*
16r	4.F\	(8a 8f/	4.ryy	.
(16Bn/LL	.	.	.	.
16d/	.	4ff 4a\)	.	.
16B/J	.	.	.	.
8c/J)	.	.	.	.
16r	4.D\	(8.gg/L	4dd 4a\	.
(16B/LL	.	.	.	.
16A/	.	.	.	.
16B/J	.	16ff/K	.	.
8A/J)	.	8ee/J)	8a 8f\	.
=36	=36	=36	=36	=36
16r	4BB\	(16dd/LL	4a 4f\	.
(16B/LL	.	16ee/J	.	.
16d/	.	8ff/	.	.
16A/	.	.	.	.
16G#X/	8C\	8cc/J)	8a 8e\	.
16A/JJ)	.	.	.	.
(16G#/LL	4D\	(16b/LL	(4f\	.
16A/	.	16cc/J	.	.
16G#/	.	8dd/	.	.
16A/	.	.	.	.
16G#/	8F\	8a/J)	8d\)	.
16A/JJ)	.	.	.	.
=37	=37	=37	=37	=37
(8B/L	2.E\	(16g#XLL 16e/	4.ryy	.
.	.	16aJJ 16f#X/	.	.
8f/	.	4b 4g#/)	.	.
8e/J)	.	.	.	.
(16F#X/LL	.	(8cc/L	(4d#X\	<
16G#X/JJ	.	.	.	.
4A/)	.	8f#/	.	.
.	.	8cc/J)	8f#\)	.
!!LO:LB:g=original
=38	=38	=38	=38	=38
(8B/L	4.E\	(16bLL 16g#X\	4.ryy	.
.	.	16dd#XJJ 16a\	.	.
8c/	.	4ee 4g#\)	.	.
8B/J)	.	.	.	.
(16B/LL	4.BB\	(8ff#X/L	4.a\	f
16c#X/JJ	.	.	.	.
4d#X/)	.	8b/	.	.
.	.	8ff#/J)	.	.
=39	=39	=39	=39	=39
(4B/	[4.E\	(16gg#X/LL	(4g#X\	.
.	.	16ff#X/JJ	.	.
.	.	[4ee/)	.	.
16c/LL	.	.	16a\LL	.
16dn/JJ	.	.	16b\JJ	.
8B/)	8E\]	8ee/L]	8g#\)	.
8r	8ryy	(8bb/	8r	.
8r	8ryy	8aa#X/J)	8r	.
*v	*v	*	*	*
*	*v	*v	*
=40	=40	=40
!	!LO:TX:b:i:t=poco rall.	!
2.r	(8aan\L	.
.	8gg#X\	.
.	8ffn\J	.
.	8ee\L	>
.	8dd#X\	.
.	8eeJ 8cc\)	]
=41	=41	=41
*ped	*	*
(16EE\LL	4.bb 4.gg#X 4.dd 4.b\	p <
16BB\	.	.
16E\	.	.
16F#X\	.	.
16G#X\	.	.
16B\JJ	.	[
4e\)	(8cccL 8gg# 8dd 8cc\	.
.	8bb 8b\	.
8r	8gg#J 8ee 8dd 8g#X\)	.
!!LO:LB:g=original
=42	=42	=42
(16AA\LL	(16eeLL 16cc 16a 16e\	mf
16D#X\	16bbJJ 16b\	.
16E\	[4aa [4ee [4cc [4a\)	.
16G#X\	.	.
16A\	.	.
16e\JJ	.	.
4A\)	8aa]L 8ee] 8cc] 8a\]	.
.	(8bb 8b\	.
8r	8cccJ 8cc\)	.
=43	=43	=43
(16AALL 16AAA\	(16dddLL 16aa 16ff 16dd\	<
16C#X\	16gggnJJ 16ggn\	.
16Dn\	4fff 4ff\)	[
16E\	.	.
16F\	.	.
16A\JJ	.	.
4d\)	8aaL 8ff 8a\	.
.	(8aa 8a\	.
8r	8bbJ 8b\)	.
=44	=44	=44
(16AA\LL	(16cccLL 16aa 16cc\	.
16D#X\	16fffJJ 16ff\	.
16E\	[4eee [<4ccc [4ee\)	.
16G#X\	.	.
16A\	.	.
16c\JJ)	.	.
(16e\LL	4eee] 4ccc] 4ee\]	<
16B\	.	.
16dn\	.	.
16c\J	.	.
8A\J)	8eee 8ccc 8ee\	.
=45	=45	=45
*	*8va	*
(16AALL 16AAA\	4.aaa 4.eee 4.ccc 4.aa^^\	f
16E\	.	.
16G#X\	.	.
16A\	.	.
16e\	.	.
16c\JJ)	.	.
8A/L	4.gggn 4.eee 4.ccc 4.ggn\	.
8E 8EE/	.	.
8AAJ 8AAA/	.	.
!!LO:LB:g=original
=46	=46	=46
(16AALL 16AAA\	8fffL 8ddd 8aa 8ff\	.
16C#X\	.	.
16D\	(8fff 8ddd 8ff\	.
16E\	.	.
16F\	8eeeJ 8cccn 8ee\)	.
16G#X\JJ	.	.
4A\)	(16dddLL 16bb 16dd/	.
.	16eeeJ 16ccc 16ee/	.
.	8fff 8ddd 8ff/)	.
8r	8fffJ 8ddd 8ff/	.
=47	=47	=47
(16AALL 16AAA\	4.gggn 4.ddd 4.bb 4.ggn\	.
16C#X\	.	.
16D\	.	.
16E\	.	.
16F\	.	.
16G#X\JJ	.	.
16A\LL	4.fff 4.ddd 4.bb 4.ff\	.
16G#\	.	.
16A\	.	.
16B\J	.	.
8f\J)	.	.
=48	=48	=48
(16AALL 16AAA\	8eeeL 8ccc 8aa 8ee/	.
16D#X\	.	.
16E\	(8eee 8ccc 8ee/	.
16G#X\	.	.
16A\	8dddnJ 8bb 8ddn/)	.
16c\JJ	.	.
*	*X8va	*
4e\)	(16cccLL 16aa 16cc\	.
.	16dddJ 16bb 16dd\	.
.	8eee 8ccc 8ee\)	.
8r	8eeeJ 8ccc 8ee\	.
=49	=49	=49
(16EE\LL	4.bb 4.gg#X 4.dd 4.b\	.
16BB\	.	.
16E\	.	.
16F#X\	.	.
16G#X\	.	.
16B\JJ	.	.
4e\)	(8.dddL 8.gg# 8.dd\	.
.	16cccK 16cc\	.
8r	8bbJ 8b\)	.
!!LO:LB:g=original
=50	=50	=50
(16AALL 16AAA\	(16cccLL 16ee 16cc\	.
16D#X\	16fffJJ 16ff\	.
16E\	[4eee [<4ccc [4ee\)	.
16G#X\	.	.
16A\	.	.
16c\JJ	.	.
16e\LL	4eee] 4ccc] 4ee\]	>
16d#X\	.	.
16e\	.	.
16f\J	.	.
8e\J)	8eee 8ee\	]
=51	=51	=51
(16EE\LL	4.gg#X 4.dd 4.g#X\	p
16BB\	.	.
16D\	.	.
16E\	.	.
16G#X\	.	.
16B\JJ	.	.
4e\)	(8.cccL 8.gg# 8.ee 8.cc\	.
.	16bbK 16b\	.
8r	8gg#J 8dd 8g#\)	.
=52	=52	=52
(16AA\LL	(16eeLL 16cc 16e\	.
16D#X\	16bbJJ 16b\	.
16E\	[4aa [4a\)	.
16G#X\	.	.
16A\	.	.
16c\JJ	.	.
4f 4dn\)	8aa]L 8a\]	.
.	(16cccL 16cc\	.
.	16bbJ 16b\	.
8r	8ffJ 8f\)	.
=53	=53	=53
(16AA\LL	(16eeLL 16cc 16e\	<
16D#X\	16bbJJ 16b\	.
16E\	[4aa [4a\)	.
16G#X\	.	[
16A\	.	.
16c\JJ	.	.
4f 4B\)	8aa]L 8a\]	.
.	(16eeeL 16ee\	.
.	16dddnJ 16ddn\	.
8r	8ffJ 8f\)	.
!!LO:LB:g=original
=54	=54	=54
(16AA\LL	(16eeLL 16cc 16e\	.
16D#X\	16dddnJJ 16ddn\	.
16E\	[4ccc [4cc\)	.
16G#X\	.	.
16A\	.	.
16c\JJ	.	.
4e\)	16ccc]LL 16cc\]	.
!	!	!LO:HP:t=dim.
.	(16eeeJ 16ee\	>
.	8ggg#X 8gg#X\	.
*clefG2	*	*
8a 8c/	8bbbJ 8bb\)	.
=55	=55	=55
8ccL 8e/	[4.aaa [4.aa\	.
16A'/L	.	.
16e'/	.	.
16a'/	.	.
16cc/JJ	.	.
4ee\	4aaa] 4aa\]	.
8r	8r	.
*clefF4	*	*
=56	=56	=56
*^	*	*
!	!	!	!LO:DY:cj
[2.e [2.A/	4r	[2.aa [2.cc\	pp
.	8r	.	.
.	4E 4EE\	.	.
.	8r	.	.
=57	=57	=57	=57
4.e_ 4.A/_	4AA 4AAA\	4.aa_ 4.cc\_	.
.	8r	.	.
8e] 8A/]	4r	8aa] 8cc\]	.
8rc	.	8r	.
8rc	8r	8r	.
*v	*v	*	*
==	==	==
*-	*-	*-
!!!system-decoration: {(*)}
!!!RDF**kern: < = below
!!!ENC: Anastazja Marusiak
!!!END: 2022-10-10
!!!ENC: Andrzej Kubiczek
!!!END: 2022-10-21
!!!YEC: Copyright 2022 Narodowy Instytut Fryderyka Chopina (https://polishscores.org)
!!!YEM: License CC-BY-4.0 (https://creativecommons.org/licenses/by/4.0)
